src/standard/media/paper-stack-lined.svg

<svg xmlns="http://www.w3.org/2000/svg" viewBox="0 0 36 36">
  <path d="M25.62 27.88V5a.61.61 0 0 0-.62-.62H12a.66.66 0 0 0-.44.19l-4 4a.6.6 0 0 0-.19.43v18.88a.61.61 0 0 0 .63.62h17a.61.61 0 0 0 .62-.62ZM11.38 6.51v1.87H9.51Zm13 20.74H8.62V9.62H12a.61.61 0 0 0 .62-.62V5.62h11.76Z"/>
  <path d="M28 7.5a.61.61 0 0 0-.62.62v22.26H11a.62.62 0 0 0 0 1.24h17a.61.61 0 0 0 .62-.62V8.12A.61.61 0 0 0 28 7.5ZM11.38 14a.61.61 0 0 0 .62.62h4.5a.62.62 0 1 0 0-1.24H12a.61.61 0 0 0-.62.62Z"/>
  <path d="M11.38 17a.61.61 0 0 0 .62.62h9a.62.62 0 0 0 0-1.24h-9a.61.61 0 0 0-.62.62ZM21 19.38h-9a.62.62 0 0 0 0 1.24h9a.62.62 0 0 0 0-1.24Zm0 3h-9a.62.62 0 0 0 0 1.24h9a.62.62 0 0 0 0-1.24Z"/>
</svg>

<svg id="e10b7a35-470c-4467-b92a-4c141ac6720e" data-name="Icon" xmlns="http://www.w3.org/2000/svg" viewBox="0 0 36 36">
  <g>
    <path d="M25.62,27.88V5A.61.61,0,0,0,25,4.38H12a.66.66,0,0,0-.44.19l-4,4A.6.6,0,0,0,7.37,9V27.88A.61.61,0,0,0,8,28.5H25A.61.61,0,0,0,25.62,27.88ZM11.38,6.51V8.38H9.51Zm13,20.74H8.62V9.62H12A.61.61,0,0,0,12.62,9V5.62H24.38Z"/>
    <path d="M28,7.5a.61.61,0,0,0-.62.62V30.38H11a.62.62,0,0,0,0,1.24H28a.61.61,0,0,0,.62-.62V8.12A.61.61,0,0,0,28,7.5Z"/>
    <path d="M11.38,14a.61.61,0,0,0,.62.62h4.5a.62.62,0,1,0,0-1.24H12A.61.61,0,0,0,11.38,14Z"/>
    <path d="M11.38,17a.61.61,0,0,0,.62.62h9a.62.62,0,0,0,0-1.24H12A.61.61,0,0,0,11.38,17Z"/>
    <path d="M21,19.38H12a.62.62,0,0,0,0,1.24h9A.62.62,0,0,0,21,19.38Z"/>
    <path d="M21,22.38H12a.62.62,0,0,0,0,1.24h9A.62.62,0,0,0,21,22.38Z"/>
  </g>
</svg>
